epam-assets/icon-sources/18/folder.svg

<svg width="18" height="18" viewBox="0 0 18 18" fill="none" xmlns="http://www.w3.org/2000/svg">
<g id="18/folder">
<g id="icon">
<path d="M2.25 3C1.5 3 0.75 3.75 0.75 4.5V12L2.55469 6H15.75C15.75 5.25 15 4.5 14.25 4.5H8.25L6.75 3H2.25Z" fill="#6C6F80"/>
<path fill-rule="evenodd" clip-rule="evenodd" d="M4.0473 7.5L1.79755 15H13.4973C13.8223 15 14.1193 14.9033 14.3883 14.7098C14.6568 14.5158 14.841 14.2563 14.941 13.9312L16.8723 7.5H4.0473ZM14.8557 9H5.16338L3.81353 13.5H13.4973L13.5005 13.5C13.5005 13.5 13.5033 13.4983 13.5051 13.4971C13.5051 13.4971 13.506 13.4943 13.5066 13.4927L14.8557 9ZM13.5055 13.5002L13.5168 13.5036L13.5055 13.5002ZM13.5055 13.5002L13.5048 13.5012C13.5021 13.505 13.5013 13.5067 13.5013 13.5067C13.5013 13.5067 13.5025 13.5042 13.5041 13.4999" fill="#6C6F80"/>
</g>
</g>
</svg>

<svg xmlns="http://www.w3.org/2000/svg" width="18" height="18" fill="none" viewBox="0 0 18 18">
  <path fill="#6C6F80" d="M2.25 3c-.75 0-1.5.75-1.5 1.5V12l1.805-6H15.75c0-.75-.75-1.5-1.5-1.5h-6L6.75 3h-4.5Z"/>
  <path fill="#6C6F80" fill-rule="evenodd" d="M4.047 7.5 1.797 15h11.7c.325 0 .622-.097.891-.29.269-.194.453-.454.553-.779L16.872 7.5H4.047ZM14.856 9H5.163l-1.35 4.5h9.689l.004-.003.002-.004L14.856 9Zm-1.35 4.5.01.004-.01-.004Zm0 0-.001.001a.043.043 0 0 0-.004.006l.003-.007" clip-rule="evenodd"/>
</svg>
